src/Pure/16/symbolic/actions/focus-legacy-systray-symbolic.svg

<?xml version="1.0" encoding="UTF-8" standalone="no"?>
<svg
   width="16"
   height="16"
   version="1.1"
   id="svg2"
   sodipodi:docname="focus-legacy-systray-symbolic.svg"
   inkscape:version="1.4.2 (ebf0e940d0, 2025-05-08)"
   xmlns:inkscape="http://www.inkscape.org/namespaces/inkscape"
   xmlns:sodipodi="http://sodipodi.sourceforge.net/DTD/sodipodi-0.dtd"
   xmlns="http://www.w3.org/2000/svg"
   xmlns:svg="http://www.w3.org/2000/svg">
  <defs
      id="defs2">
      <style
          id="current-color-scheme"
          type="text/css">
          .ColorScheme-Text { color:#363636; }
      </style>
  </defs>
  <sodipodi:namedview
     id="namedview2"
     pagecolor="#ffffff"
     bordercolor="#000000"
     borderopacity="0.25"
     inkscape:showpageshadow="2"
     inkscape:pageopacity="0.0"
     inkscape:pagecheckerboard="0"
     inkscape:deskcolor="#d1d1d1"
     inkscape:zoom="49.6875"
     inkscape:cx="8"
     inkscape:cy="8.0603774"
     inkscape:window-width="1920"
     inkscape:window-height="1010"
     inkscape:window-x="0"
     inkscape:window-y="0"
     inkscape:window-maximized="1"
     inkscape:current-layer="svg2" />
  <path
     id="path1"
     style="fill:currentColor;fill-opacity:1"
     class="ColorScheme-Text"
     d="M 0 2 L 0 14 L 10 14 L 10 4 C 10 2 8 2 8 2 L 0 2 z M 10.017578 2 C 10.14454 2.0101517 11 2.1480769 11 4 L 11 14 L 12 14 L 12 4 C 12 2.0510309 10.114498 2.0012689 10.017578 2 z M 12.017578 2 C 12.14454 2.0101517 13 2.1480769 13 4 L 13 14 L 14 14 L 14 4 C 14 2.0510309 12.114498 2.0012689 12.017578 2 z M 1 3 L 8 3 C 8.554 3 9 3.446 9 4 L 9 13 L 1 13 L 1 3 z M 3 5 L 3 11 L 7.5 8 L 3 5 z " />
</svg>

<svg width="16" height="16" version="1.1" xmlns="http://www.w3.org/2000/svg">
 <path d="m0 2v12h10v-10c0-2-2-2-2-2h-8zm10 0s1 0 1 2v10h1v-10c0-2-2-2-2-2zm2 0s1 0 1 2v10h1v-10c0-2-2-2-2-2zm-11 1h7c0.554 0 1 0.446 1 1v9h-8v-10z" fill="#363636"/>
 <path d="m3 5 4.5 3-4.5 3z" fill="#363636"/>
</svg>
